X:1
T:O sospiro
T:O sospiro
T:Dominico Obizzi
T:Source : Madrigali et arie a voce sola---Libro I ---Venetia---A.Vincenti---1627. Editor : André Vierendeels (14/05/15).
T:Notes : Original clefs : C1,F4 Dotted brackets indicate black notes 3/4  notated as 3/1 in original print BC : "Alfabeto d'ariette per la chitarra alla Spagnola" realised by the editor.
T:Arietta
C:Dominico Obizzi
%%score 1 { ( 2 3 ) | 4 }
L:1/8
Q:1/4=86
M:3/4
K:C
V:1 treble nm="Soprano" snm="S"
V:2 treble nm="BC" snm="BC"
V:3 treble 
V:4 bass 
V:1
 z2 c2 B2 | A2 A2 A2 | A2 G2 F2 | E4 C2 | D2 D2 D2 | E2 F2 G2 | G2 ^F4 | G6 | E2 E2 E2 | FE FG A2 | %10
w: O so-|spi- ro, so-|spi- ro'a- mo-|ro- so,|spir- to d'un|cor _ do-|glio- *|so,|ch'es- ci dal|pet- * * * *|
w: Van- ne-|al ri- gi-|do se- *|no, van-|ne al ri-|gi- * do|se- *|no,|che sol di|ge- * * * *|
 A2 A2 ^G2 | A6 | z2 G4 | F4 E2 | E2 D4 | C6 | D2 E2 F2 | G2 G4 | A3 B c2 | c2 c2 B2 | c6 :: %21
w: to'à vo- *|lo,|pau-|sa so-|a _|uc-||* à|l'a- mo- ro-|so duo- *|lo.|
w: lo'e pie- *|no,|e-|co tuoi|sia- ti'ar-|den-|ti, stem- pra|le ne-|vi sue fred-|d'e'al- gen- *|ti.|
 z2 c2 B2 | A2 AA G>F | E C/D/ E/F/G/A/ G2 | EF FE D2 | C z G2 ^F2 | G2 cB A2 | G4 ^F2 | GA Bc A2 | %29
w: Ze- fi-|ret- to d'A- mo- re|_ trom- * * * * * *|ba del mio do- lo-|re, au- ra-|lie- tie e va-|gan mu-|to _ _ _ fo-|
w: E se|nel cen- tro mai _|_ di _ _ _ _ _ _|quel pet- to'en- te- ra-|i, non quin-|di'us- cir se pri-|a non|scal- * * * di|
 G3 c Bc | A>G FE D2 | C6 :| %32
w: rier di ta- ci|tur- * * no'a- man-|te.|
w: di pie- ta la|Don- * * na mi-|a.|
V:2
 G6 | A6 | c2 B4 | c6 | B6 | c4 c2 | c2 A4 | B6 | c6 | A6 | A2 B4 | E6 | G6 | A6 | c2 B4 | G6 | %16
 G6 | c6 | c6 | A2 G4 | G6 :: G4 G2 | A2 A2 B2 | c4 d2 | c2 c2 B2 | G2 A4 | c4 A2 | B4 A2 | c4 A2 | %29
 G4 G2 | A2 A c2 B | c6 :| %32
V:3
 E6 | C6 | A2 D4 | G6 | D6 | G2 F2 E2 | E2 D4 | D6 | E6 | D6 | F2 E4 | ^C6 | E6 | C6 | A2 D4 | E6 | %16
 D2 E2 F2 | E6 | A6 | F2 D4 | E6 :: E4 D2 | E2 F2 D2 | E2 G4 | A2 A2 D2 | E2 D4 | G4 F2 | D6 | %28
 G4 ^F2 | D2 E2 D2 | E2 F2 D2 | E6 :| %32
V:4
 C,4 C,2 | F,4 F,2 | F,2 G,4 | C,4 C,2 | G,,4 G,,2 | C,4 C,2 | C,2 D,4 | G,,4 G,,2 | A,,4 A,,2 | %9
 D,4 D,2 | D,2 E,4 | A,,4 A,,2 | C,4 C,2 | F,,4 F,,2 | F,,2 G,,4 | C,4 C,2 | C,4 C,2 | C,4 C,2 | %18
 F,4 F,2 | F,2 G,4 | C,6 :: C,3 C, G,,2 | A,, F,,2 F,, G,,2 | C, C,2 C, G,,2 | A,, F,,2 F,, G,,2 | %25
 C, G,,2 G,, D,2 | E, C,2 C, D,2 | G,, G,2 G, D,2 | E, C,2 C, D,2 | G,, C,2 C, G,,2 | %30
 A,, F,,2 F,, G,,2 | C,6 :| %32

